!!!!SEGMENT: pl-kk--kk-i-34--001-002_anonim--missa-et-in-terra.krn
!!!cenid: 16xx:1328
!!!COM: Anonim
!!!COM-rismid: pe30004985
!!!CDT:
!!!CNT:
!!!OPR: Missa
!!!OTL: Et in terra
!!!OMV: 002
!!!PDT:
!!!AGN: Sacred; Mass
!!!SMS-siglum: PL-Kk
!!!SMS-shelfmark: Kk.I.34
!!!SMS-shelfwork: 001-002 M
!!!SMS-variant:
!!!SMS-altvar: A: 1, T1: 5, T2: 9, B: 14
!!!NIFC-rismid: 1001156614
!!!URL-scan: http://repozytorium.nifc.pl/skany/pl-kk-nut--i-34
!!!ONB-nifc: UWAGA: wg RISM obsada A, T (2), B. W zbiorze: 001 (Missa) -- 1. Kyrie, 2. Et in terra, 3. Patrem, 4. Sanctus, 5. Agnus Dei; 002 -- Rorate caeli, 003 -- Rorate caeli
**kern	**text	**kern	**text	**kern	**text	**kern	**text
*part4	*part4	*part3	*part3	*part2	*part2	*part1	*part1
*staff4	*staff4	*staff3	*staff3	*staff2	*staff2	*staff1	*staff1
*Iempty	*	*Itenor	*	*Itenor	*	*Ialto	*
*I"[Basso]	*	*I"[Tenore 2]	*	*I"[Tenore 1]	*	*I"[Alto]	*
*I'[B]	*	*I'[T 2]	*	*I'[T 1]	*	*I'[A]	*
*clefF4	*	*clefC4	*	*clefC4	*	*clefC3	*
*k[]	*	*k[]	*	*k[]	*	*k[]	*
*C:	*	*C:	*	*C:	*	*C:	*
*M3/1	*	*M3/1	*	*M3/1	*	*M3/1	*
=1-	=1-	=1-	=1-	=1-	=1-	=1-	=1-
0C	Et	0e	Et	0c	Et	0g	Et
!LO:TX:t=P:problem:kreska pseudotaktowa	!	!LO:TX:t=P:problem:kreska pseudotaktowa	!	!LO:TX:t=P:problem:kreska pseudotaktowa	!	!LO:TX:t=P:problem:kreska pseudotaktowa	!
1C	in	1e	in	1c	in	1g	in
=2-	=2-	=2-	=2-	=2-	=2-	=2-	=2-
1G	ter-	1d	ter-	1B	ter-	1g	ter-
1GG	-ra	1d	-ra	1B	-ra	1g	-ra
!LO:TX:t=P:problem:kreska pseudotaktowa	!	!LO:TX:t=P:problem:kreska pseudotaktowa	!	!LO:TX:t=P:problem:kreska pseudotaktowa	!	!LO:TX:t=P:problem:kreska pseudotaktowa	!
1GG	in	1d	in	1B	in	1g	in
=3-	=3-	=3-	=3-	=3-	=3-	=3-	=3-
0C	ter-	0e	ter-	0c	ter-	0g	ter-
!	!	!LO:TX:t=P:problem:kreska pseudotaktowa	!	!LO:TX:t=P:problem:kreska pseudotaktowa	!	!LO:TX:a:t=P:problem:# above	!
1D	-ra	1d	-ra	1A	-ra	1f#X	-ra
=4-	=4-	=4-	=4-	=4-	=4-	=4-	=4-
!	!	!	!	!	!	!LO:TX:t=P:problem:kreska pseudotaktowa	!
!	!	!	!	!	!	!LO:N:vis=0	!
0GG	.	0d	pax	0G	pax	0.g	pax
!LO:TX:t=P:problem:kreska pseudotaktowa	!	!LO:TX:t=P:problem:kreska pseudotaktowa	!	!LO:TX:t=P:problem:kreska pseudotaktowa	!	!	!
1C	pax	1c	in	1e	et	.	.
=5-	=5-	=5-	=5-	=5-	=5-	=5-	=5-
!	!	!	!	!	!	!LO:TX:a:t=6	!
!	!	!	!	!	!	!LO:N:vis=00	!
0GG	.	2B\	ter-	2d\	in	00.r	.
.	.	2c\	.	2c\	.	.	.
.	.	2d\	.	2B\	ter-	.	.
.	.	2c\	.	2A\	.	.	.
!LO:TX:t=P:problem:kreska pseudotaktowa	!	!	!	!	!	!	!
1GG	ho-	2B\	.	2G/	-ra	.	.
.	.	4A/	.	2F/	.	.	.
!	!	!LO:TX:t=P:problem:kreska pseudotaktowa	!	!	!	!	!
.	.	4B\	.	.	.	.	.
!	!	!	!	!LO:LB:g=original	!	!	!
=6-	=6-	=6-	=6-	=6-	=6-	=6-	=6-
1.C	-mi-	2c\	.	2E/	pax	.	.
.	.	2B\	-ra	2F/	ho-	.	.
.	.	2B\	pax	1.G	-mi-	.	.
2C/	-ni-	2A/	ho-	.	.	.	.
1D	-b(us)	2.A/	-mi-	.	.	.	.
!	!	!	!	!LO:TX:t=P:problem:kreska pseudotaktowa	!	!	!
.	.	.	.	2F/	-ni-	.	.
!	!	!LO:TX:t=P:problem:kreska pseudotaktowa	!	!	!	!	!
.	.	4A/	-ni-	.	.	.	.
!LO:LB:g=original	!	!	!	!	!	!	!
=7-	=7-	=7-	=7-	=7-	=7-	=7-	=7-
!	!	!	!	!	!	!LO:N:vis=00	!
1.G	bo-	0G	-b(us)	0G	-b(us)	00.r	.
2G\	-ne	.	.	.	.	.	.
!LO:TX:t=P:problem:kreska pseudotaktowa	!	!	!	!	!	!	!
1G	vo-	2G/	bo-	2B\	bo-	.	.
!	!	!LO:TX:t=P:problem:kreska pseudotaktowa	!	!LO:TX:t=P:problem:kreska pseudotaktowa	!	!	!
.	.	2G/	-nae	2B\	-ne	.	.
=8-	=8-	=8-	=8-	=8-	=8-	=8-	=8-
0F	-lun-	2A/	Vo-	2c\	Vo-	.	.
.	.	2G/	.	2B\	.	.	.
!	!	!LO:LB:g=original	!	!	!	!	!
.	.	2A/	.	2c\	.	.	.
.	.	2B\	.	2d\	.	.	.
!LO:TX:t=P:problem:kreska pseudotaktowa	!	!	!	!	!	!	!
1C	-ta-	2c\	-lun-	2e\	.	.	.
!	!	!LO:TX:t=P:problem:kreska pseudotaktowa	!	!LO:TX:t=P:problem:kreska pseudotaktowa	!	!	!
.	.	2d\	.	2f\	.	.	.
=9-	=9-	=9-	=9-	=9-	=9-	=9-	=9-
!	!	!	!	!	!	!LO:N:vis=00	!
!	!	!	!	!	!	!LO:TX:t=P:problem:kreska pseudotaktowa	!
0GG	-tis	2B\	-ta-	2d\	.	00.r	.
.	.	2A\	.	2c\	.	.	.
.	.	2B\	-tis	2d\	.	.	.
.	.	2c\	lau-	2e\	.	.	.
!	!	!	!	!LO:TX:t=P:problem:kreska pseudotaktowa	!	!	!
1AA	lau-	2A/	.	1c	-lun-	.	.
!	!	!LO:TX:t=P:problem:kreska pseudotaktowa	!	!	!	!	!
.	.	2B\	-da-	.	.	.	.
=10-	=10-	=10-	=10-	=10-	=10-	=10-	=10-
0E	-da-	0G	-m(us)	0B	-ta-	.	.
!LO:TX:t=P:problem:kreska pseudotaktowa	!	!LO:TX:t=P:problem:kreska pseudotaktowa	!	!	!	!	!
1F	-m(us)	1F	.	1A	.	.	.
=11-	=11-	=11-	=11-	=11-	=11-	=11-	=11-
1C	te	0E	te	0.B	-tis	1r	.
1C	be-	.	.	.	.	1r	.
!LO:TX:t=P:problem:kreska pseudotaktowa	!	!	!	!	!	!	!
1C	-ne-	2c\	be-	.	.	2e\	be-
!	!	!LO:TX:t=P:problem:kreska pseudotaktowa	!	!	!	!LO:TX:t=P:problem:kreska pseudotaktowa	!
.	.	2d\	.	.	.	2fny\	-ne-
!	!	!	!	!	!	!LO:LB:g=original	!
=12-	=12-	=12-	=12-	=12-	=12-	=12-	=12-
*	*	*lig	*	*	*	*lig	*
!	!	!	!	!LO:N:vis=00	!	!	!
1.C	-di-	1e	-ne-	00.r	.	1g	-di-
.	.	1d	.	.	.	1f	-ci-
2C/	-ci-	.	.	.	.	.	.
*	*	*Xlig	*	*	*	*Xlig	*
!LO:TX:t=P:problem:kreska pseudotaktowa	!	!	!	!	!	!	!
1BB	-m(us)	2d\	-di-	.	.	2f\	-m(us)
!	!	!LO:TX:t=P:problem:kreska pseudotaktowa	!	!	!	!LO:TX:t=P:problem:kreska pseudotaktowa	!
.	.	2d\	-ci-	.	.	2g\	.
=13-	=13-	=13-	=13-	=13-	=13-	=13-	=13-
1C	te	1c	-m(us)	.	.	1e	te
1C	a-	1.c	te	.	.	1r	.
!	!	!	!	!	!	!LO:TX:t=P:problem:kreska pseudotaktowa	!
1C	-do-	.	.	.	.	1r	.
!	!	!LO:TX:t=P:problem:kreska pseudotaktowa	!	!	!	!	!
.	.	2B\	a-	.	.	.	.
=14-	=14-	=14-	=14-	=14-	=14-	=14-	=14-
!	!	!	!	!LO:N:vis=00	!	!	!
0F	-ra-	2A/	-do-	00.r	.	1.f	a-
.	.	2B\	-ra-	.	.	.	.
.	.	1.c	.	.	.	.	.
.	.	.	.	.	.	2e\	-do-
!LO:TX:t=P:problem:kreska pseudotaktowa	!	!	!	!	!	!	!
1G	.	.	.	.	.	2d\	-ra-
!	!	!LO:TX:t=P:problem:kreska pseudotaktowa	!	!	!	!LO:TX:t=P:problem:kreska pseudotaktowa	!
.	.	2B\	-m(us)	.	.	2d\	-m(us)
=15-	=15-	=15-	=15-	=15-	=15-	=15-	=15-
0C	-m(us)	0c	te	.	.	0c	te
1C	te	2c\	glo-	.	.	2e\	glo-
!	!	!	!	!	!	!LO:TX:t=P:problem:kreska pseudotaktowa	!
.	.	2d\	.	.	.	2f\	.
!	!	!LO:LB:g=original	!	!	!	!	!
=16-	=16-	=16-	=16-	=16-	=16-	=16-	=16-
!	!	!	!	!LO:N:vis=00	!	!	!
0C	glo-	0e	-ri-	00.r	.	2g\	.
.	.	.	.	.	.	2f\	.
.	.	.	.	.	.	2g\	.
.	.	.	.	.	.	2e\	.
!LO:TX:t=P:problem:kreska pseudotaktowa	!	!LO:TX:t=P:problem:kreska pseudotaktowa	!	!	!	!LO:TX:t=P:problem:kreska pseudotaktowa	!
1F	-ri-	1A	-fi-	.	.	1f	-ri-
=17-	=17-	=17-	=17-	=17-	=17-	=17-	=17-
1C	-fi-	1c	-ca-	.	.	2e\	-fi-
.	.	.	.	.	.	2d\	-ca-
1.G	-ca-	1.c	-m(us)	.	.	1.d	-m(us)
2G\	-m(us)	2B\	.	.	.	2d\	.
=18-	=18-	=18-	=18-	=18-	=18-	=18-	=18-
!LO:TX:t=P:problem:kreska pseudotaktowa	!	!LO:TX:t=P:problem:kreska pseudotaktowa	!	!LO:TX:t=P:problem:kreska pseudotaktowa	!	!LO:TX:t=P:problem:kreska pseudotaktowa	!
!	!	!	!	!LO:N:vis=0	!	!	!
0.C	te	0.c	te	1%3r	.	0.c	te
!LO:LB:g=original	!	!	!	!	!	!	!
=19-	=19-	=19-	=19-	=19-	=19-	=19-	=19-
1.C	gra-	1.c	gra-	1.e	gra-	1.g	gra-
2C/	-ti-	2c\	-ti-	2e\	-ti-	2g\	-ti-
!	!	!	!	!LO:TX:t=P:problem:kreska pseudotaktowa	!	!LO:TX:t=P:problem:kreska pseudotaktowa	!
1C	-as	1c	-as	1e	-as	1g	-as
=20-	=20-	=20-	=20-	=20-	=20-	=20-	=20-
*	*ij	*	*ij	*	*	*	*
1.G	gra-	1.B	gra-	1.d	gra-	1.g	[gra-
2G\	-ti-	2B\	-ti-	2d\	-ti-	2g\	-ti-
!	!	!	!	!LO:SIC:v:t=custos e	!	!	!
!LO:TX:t=P:problem:kreska pseudotaktowa	!	!LO:TX:t=P:problem:kreska pseudotaktowa	!	!LO:TX:t=P:problem:kreska pseudotaktowa	!	!	!
1G	-as	1B	-as	1d	-as	1g	-as]
*	*Xij	*	*Xij	*	*	*	*
!	!	!	!	!LO:LB:g=original	!	!LO:LB:g=original	!
=21-	=21-	=21-	=21-	=21-	=21-	=21-	=21-
1C	a-	1c	a-	1e	a-	1g	a-
2C/	-gi-	2c\	-gi-	2e\	-gi-	2g\	-gi-
2GG/	-m(us)	2B\	-m(us)	2d\	-m(us)	2g\	-m(us)
!	!	!LO:TX:t=P:problem:kreska pseudotaktowa	!	!LO:TX:t=P:problem:kreska pseudotaktowa	!	!LO:TX:t=P:problem:kreska pseudotaktowa	!
1D	ti-	1A	ti-	1d	ti-	1f	ti-
=22-	=22-	=22-	=22-	=22-	=22-	=22-	=22-
0G	-bi	0G	-bi	0d	-bi	0g	-bi
2C/	pro-	2G/	pro-	2c\	pro-	2g\	p(ro)-
!LO:TX:t=P:problem:kreska pseudotaktowa	!	!	!	!LO:TX:t=P:problem:kreska pseudotaktowa	!	!LO:TX:t=P:problem:kreska pseudotaktowa	!
2C/	-pter	2G/	-pter	2c\	-pter	2g\	-p(te)r
=23-	=23-	=23-	=23-	=23-	=23-	=23-	=23-
0F	ma-	0A	ma-	0c	Ma-	0f	ma-
!	!	!LO:TX:t=P:problem:kreska pseudotaktowa	!	!	!	!	!
1G	-gn(am)	1c	-gn(am)	1c	.	1f	-gn(am)
=24-	=24-	=24-	=24-	=24-	=24-	=24-	=24-
*	*ij	*	*ij	*	*	*	*ij
1.E	pro-	1.B	pro-	1.e	.	1.e	p(ro)-
2E\	-pter	2B\	-pter	2G/	.	2e\	-p(te)r
2F\	ma-	2A/	ma-	2A/	-gn(am)	2c/	ma-
!LO:TX:t=P:problem:kreska pseudotaktowa	!	!LO:TX:t=P:problem:kreska pseudotaktowa	!	!LO:TX:t=P:problem:kreska pseudotaktowa	!	!LO:TX:t=P:problem:kreska pseudotaktowa	!
2F\	-gn(am)	2A/	-gn(am)	2B\	.	2c/	-gn(am)
*	*Xij	*	*Xij	*	*	*	*Xij
=25-	=25-	=25-	=25-	=25-	=25-	=25-	=25-
1C	glo-	1G	glo-	1c	.	2c/	glo-
.	.	.	.	.	.	2c/	-ri-
2C/	-ri-	2G/	-ri-	2C/	glo-	1c	-(am)
2C/	-(am)	2G/	-(am)	2C/	-ri-	.	.
!	!	!	!	!LO:TX:t=P:problem:kreska pseudotaktowa	!	!	!
1D	tu-	1F	tu-	1F	-(am)	2A/	tu-
!	!	!	!	!	!	!LO:TX:t=P:problem:kreska pseudotaktowa	!
.	.	.	.	.	.	2B/	.
!	!	!LO:LB:g=original	!	!	!	!	!
=26-	=26-	=26-	=26-	=26-	=26-	=26-	=26-
!LO:TX:t=P:problem:kreska pseudotaktowa	!	!LO:TX:t=P:problem:kreska pseudotaktowa	!	!	!	!LO:TX:t=P:problem:kreska pseudotaktowa	!
0.AA	-(am)	0.E	-(am)	0A	tu-	0.c	-(am)
!	!	!	!	!LO:TX:t=P:problem:kreska pseudotaktowa	!	!	!
.	.	.	.	1E	-(am)	.	.
=27-	=27-	=27-	=27-	=27-	=27-	=27-	=27-
1C	Do-	1E	D(o-	2E/	D(o-	0c	Do-
.	.	.	.	2F/	-mi)-	.	.
2C/	-mi-	1E	-mi)-	2G/	-ne	.	.
2BB/	-ne	.	.	4A\	De-	.	.
.	.	.	.	4B\	.	.	.
2AA/	De-	1E	-ne	2c\	-(us)	2c/	-mi-
!LO:SIC:v:t=custos E	!	!	!	!LO:TX:t=P:problem:kreska pseudotaktowa	!	!LO:TX:t=P:problem:kreska pseudotaktowa	!
2AA/	-(us)	.	.	2c\	Rex	2d\	-ne
!LO:LB:g=original	!	!	!	!	!	!	!
=28-	=28-	=28-	=28-	=28-	=28-	=28-	=28-
0E	Rex	1G	De-	0B	Co-	1.e	De-
.	.	1G	-(us)	.	.	.	.
.	.	.	.	.	.	2d\	-(us)
!	!	!LO:TX:t=P:problem:kreska pseudotaktowa	!	!	!	!	!
1F	cae-	1F	Rex	1A	-le-	2c\	Rex
!	!	!	!	!	!	!LO:TX:t=P:problem:kreska pseudotaktowa	!
.	.	.	.	.	.	2d\	.
=29-	=29-	=29-	=29-	=29-	=29-	=29-	=29-
!	!	!	!	!LO:SIC:v:t=custos G	!	!	!
!	!	!	!	!LO:TX:t=P:problem:kreska pseudotaktowa	!	!	!
1C	-les-	1E	Cae-	0.G	&#383;tis	2e\	cae-
.	.	.	.	.	.	2f\	.
0G	-tis	0D	-les-	.	.	0g	-le-
!	!	!	!	!LO:LB:g=original	!	!LO:LB:g=original	!
=30-	=30-	=30-	=30-	=30-	=30-	=30-	=30-
!LO:TX:t=P:problem:kreska pseudotaktowa	!	!	!	!	!	!LO:TX:t=P:problem:kreska pseudotaktowa	!
0.C	De-	0C	-tis	0G	De-	0.e	-stis
.	.	2.E/	De-	2c\	-(us)	.	.
!	!	!	!	!LO:TX:t=P:problem:kreska pseudotaktowa	!	!	!
.	.	.	.	2d\	.	.	.
!	!	!LO:TX:t=P:problem:kreska pseudotaktowa	!	!	!	!	!
.	.	4F/	-(us)	.	.	.	.
=31-	=31-	=31-	=31-	=31-	=31-	=31-	=31-
1.C	-(us)	0G	Pa-	0e	Pa-	1e	De-
.	.	.	.	.	.	1e	-(us)
2C/	Pa-	.	.	.	.	.	.
!	!	!LO:TX:t=P:problem:kreska pseudotaktowa	!	!LO:TX:t=P:problem:kreska pseudotaktowa	!	!	!
1FF	.	1F	-ter	1d	-ter	1f	Pa-
=32-	=32-	=32-	=32-	=32-	=32-	=32-	=32-
2C/	-ter	1E	o-	1c	o-	2g\	-ter
2C/	o-	.	.	.	.	2g\	o-
1.GG	-mni-	1.D	-mni-	1.d	-mni-	1.g	-mni-
!	!	!	!	!	!	!LO:TX:t=P:problem:kreska pseudotaktowa	!
2GG/	-po-	2D/	-po-	2d\	-po-	2g\	-po-
=33-	=33-	=33-	=33-	=33-	=33-	=33-	=33-
!LO:TX:t=P:problem:kreska pseudotaktowa	!	!LO:TX:t=P:problem:kreska pseudotaktowa	!	!LO:TX:t=P:problem:kreska pseudotaktowa	!	!	!
0.C	-ten&#383;	0.C	-tens	0.e	-tens	0.g	-tens
=34-	=34-	=34-	=34-	=34-	=34-	=34-	=34-
!	!	!	!	!LO:TX:t=P:problem:kreska pseudotaktowa	!	!	!
!	!	!	!	!LO:N:vis=00	!	!	!
!	!	!	!	!LO:TX:a:t=2	!	!	!
1.C	D(o-	1.e	D(o-	00.r	.	1.g	D(o-
2C/	-mi)-	2d\	-mi)-	.	.	2f\	-mi)-
!	!	!LO:TX:t=P:problem:kreska pseudotaktowa	!	!	!	!LO:TX:t=P:problem:kreska pseudotaktowa	!
1C	-ne	1c	-ne	.	.	1e	-ne
=35-	=35-	=35-	=35-	=35-	=35-	=35-	=35-
1.G	Fi-	0B	fi-	.	.	0d	Fi-
2G\	-li	.	.	.	.	.	.
!	!	!LO:TX:t=P:problem:kreska pseudotaktowa	!	!	!	!	!
2G\	u-	1B	-li	.	.	1d	-li
!LO:TX:t=P:problem:kreska pseudotaktowa	!	!	!	!	!	!	!
2G\	-ni-	.	.	.	.	.	.
=36-	=36-	=36-	=36-	=36-	=36-	=36-	=36-
1.C	-ge-	1.c	u-	1r	.	2e\	u-
.	.	.	.	.	.	2f\	-ni-
.	.	.	.	1r	.	1.g	-ge-
2C/	-ni-	2B\	-ni-	.	.	.	.
1D	-te	2A/	-ge-	2d\	Je-	.	.
!	!	!	!	!LO:TX:t=P:problem:kreska pseudotaktowa	!	!LO:TX:t=P:problem:kreska pseudotaktowa	!
.	.	2A/	-ni-	2c\	.	2f\	-ni-
=37-	=37-	=37-	=37-	=37-	=37-	=37-	=37-
!	!	!LO:TX:t=P:problem:kreska pseudotaktowa	!	!	!	!	!
2G\	Je-	0.G	-te	2B\	.	1g	-te
2F\	.	.	.	4c\	.	.	.
.	.	.	.	4d\	.	.	.
2E/	.	.	.	1.e	.	2g\	Je-
2D/	.	.	.	.	.	2f\	.
2C/	.	.	.	.	.	2e\	.
!	!	!	!	!LO:TX:t=P:problem:kreska pseudotaktowa	!	!	!
4D\	.	.	.	2d\	.	4f\	.
!	!	!	!	!	!	!LO:TX:t=P:problem:kreska pseudotaktowa	!
4E\	.	.	.	.	.	4g\	.
!LO:LB:g=original	!	!LO:PB:g=original	!	!	!	!	!
=38-	=38-	=38-	=38-	=38-	=38-	=38-	=38-
!LO:N:vis=2.	!	!	!	!	!	!	!
2F\	.	1.A	Je-	0c	-&#383;u	2a\	.
2E\	.	.	.	.	.	2g\	.
*	*	*	*	*	*	*lig	*
2F\	.	.	.	.	.	1f	-&#383;u
2G\	.	2B\	.	.	.	.	.
!LO:TX:t=P:problem:kreska pseudotaktowa	!	!LO:TX:t=P:problem:kreska pseudotaktowa	!	!	!	!LO:TX:t=P:problem:kreska pseudotaktowa	!
1A	-&#383;u	1c	.	2c\	Je-	1e	.
.	.	.	.	2d\	.	.	.
*	*	*	*	*	*	*Xlig	*
!	!	!	!	!	!	!LO:LB:g=original	!
=39-	=39-	=39-	=39-	=39-	=39-	=39-	=39-
*	*	*	*	*col	*	*	*
0E	Je-	0B	-&#383;u	0e	-&#383;u	2e\	Je-
.	.	.	.	.	.	2f\	.
.	.	.	.	.	.	1g	.
1F	-&#383;u	1A	.	0c	Chri-	2c/	-&#383;u
!	!	!	!	!	!	!LO:TX:t=P:problem:kreska pseudotaktowa	!
.	.	.	.	.	.	2d\	.
=40-	=40-	=40-	=40-	=40-	=40-	=40-	=40-
1C	chri-	1G	Chri-	.	.	1e	Chry-
*lig	*	*	*	*	*	*	*
!	!	!LO:TX:t=P:problem:kreska pseudotaktowa	!	!	!	!	!
1D	.	0F	.	0A	.	1d	.
!LO:TX:t=P:problem:kreska pseudotaktowa	!	!	!	!	!	!	!
1AA	.	.	.	.	.	1c	-&#383;te
*Xlig	*	*	*	*Xcol	*	*	*
=41-	=41-	=41-	=41-	=41-	=41-	=41-	=41-
!LO:TX:t=P:problem:kreska pseudotaktowa	!	!	!	!LO:TX:t=P:problem:kreska pseudotaktowa	!	!	!
0.C	-&#383;te	2E/	-&#383;te	0.G	-&#383;te	(>1e	do-
.	.	2c\	Do-	.	.	.	.
.	.	2c\	-mi-	.	.	1c)	.
.	.	2d\	-ne	.	.	.	.
.	.	2e\	De-	.	.	2c/	-mi-
!	!	!LO:TX:t=P:problem:kreska pseudotaktowa	!	!	!	!LO:TX:t=P:problem:kreska pseudotaktowa	!
.	.	2d\	-(us)	.	.	2d/	-ne
=42-	=42-	=42-	=42-	=42-	=42-	=42-	=42-
1C	D(o-	0c	a-	1e	D(o-	2e\	De-
.	.	.	.	.	.	2f\	-us
2C/	-mi)-	.	.	2e\	-mi)-	2g\	Rex
!	!	!	!	!	!	!LO:TX:a:t=P:problem:tekst nieczytelny	!
2D/	-ne	.	.	2f\	-ne	2f\	[cae-
2E\	De-	1c	-gn(us)	2g\	De-	2e\	-le-
!LO:TX:t=P:problem:kreska pseudotaktowa	!	!	!	!	!	!LO:TX:t=P:problem:kreska pseudotaktowa	!
2D/	-(us)	.	.	2f\	-(us)	2e\	-stis]
!	!	!	!	!LO:LB:g=original	!	!	!
=43-	=43-	=43-	=43-	=43-	=43-	=43-	=43-
!	!	!LO:TX:t=P:problem:kreska pseudotaktowa	!	!	!	!	!
1.C	a-	0.c	De-	2e\	a-	1.e	.
.	.	.	.	2f\	.	.	.
.	.	.	.	1g	.	.	.
4D\	.	.	.	.	.	4f\	.
4E\	.	.	.	.	.	4g\	.
!	!	!	!	!LO:TX:t=P:problem:kreska pseudotaktowa	!	!	!
2F\	.	.	.	1f	-gn(us)	1.a	.
!LO:TX:t=P:problem:kreska pseudotaktowa	!	!	!	!	!	!	!
2G\	.	.	.	.	.	.	.
=44-	=44-	=44-	=44-	=44-	=44-	=44-	=44-
2A\	.	1c	-i	1e	De-	.	.
2G\	-gn(us)	.	.	.	.	2e\	.
*lig	*	*	*	*	*	*lig	*
1F	De-	0d	De-	0d	-(us)	1a	.
!	!	!	!	!	!	!LO:TX:t=P:problem:kreska pseudotaktowa	!
1G	.	.	.	.	.	1g	.
*Xlig	*	*	*	*	*	*Xlig	*
=45-	=45-	=45-	=45-	=45-	=45-	=45-	=45-
!	!	!	!	!	!	!LO:SIC:v:t=custos g	!
!LO:TX:t=P:problem:kreska pseudotaktowa	!	!LO:TX:t=P:problem:kreska pseudotaktowa	!	!LO:TX:t=P:problem:kreska pseudotaktowa	!	!LO:TX:t=P:problem:kreska pseudotaktowa	!
0.C	-i	0.e	-i	0.c	.	0.g	.
!	!	!	!	!	!	!LO:PB:g=original	!
=46-	=46-	=46-	=46-	=46-	=46-	=46-	=46-
1.C	Fi-	0e	Fi-	0c	Fi-	1.g	Fi-
2C/	-li-	.	.	.	.	2g\	-li-
!LO:SIC:v:t=custos E	!	!	!	!	!	!	!
1F	-(us)	1f	-li-	1c	-li-	2a\	-(us)
*	*	*	*	*	*	*	*ij
!	!	!	!	!	!	!LO:TX:t=P:problem:kreska pseudotaktowa	!
.	.	.	.	.	.	2a\	Fi-
!LO:PB:g=original	!	!	!	!	!	!	!
=47-	=47-	=47-	=47-	=47-	=47-	=47-	=47-
1E	Pa-	1g	-(us)	0c	-(us)	2g\	-li-
.	.	.	.	.	.	2g\	-(us)
*	*	*	*	*	*	*	*Xij
!	!	!LO:TX:t=P:problem:kreska pseudotaktowa	!	!	!	!LO:TX:t=P:problem:kreska pseudotaktowa	!
0G	.	0d	Pa-	.	.	0g	Pa-
.	.	.	.	1B	Pa-	.	.
=48-	=48-	=48-	=48-	=48-	=48-	=48-	=48-
!LO:TX:t=P:problem:kreska pseudotaktowa	!	!	!	!LO:TX:t=P:problem:kreska pseudotaktowa	!	!LO:TX:t=P:problem:kreska pseudotaktowa	!
0.C	-tris	0.c	-tri	0.c	-tris	0.g	-tris
=49-	=49-	=49-	=49-	=49-	=49-	=49-	=49-
!	!	!	!	!LO:N:vis=00	!	!	!
0C	Qui	1c	Qui	000r	.	1e	qui
.	.	(>2A\	tol-	.	.	2c/	to-
.	.	2B\)	.	.	.	2d/	.
1C	tol-	2c\	-lis	.	.	2e\	.
!	!	!LO:TX:t=P:problem:kreska pseudotaktowa	!	!	!	!LO:TX:t=P:problem:kreska pseudotaktowa	!
.	.	2d\	.	.	.	2f\	.
!	!	!LO:LB:g=original	!	!	!	!	!
=50-	=50-	=50-	=50-	=50-	=50-	=50-	=50-
0GG	-li&#383;	1B	pec-	.	.	1d	.
.	.	1B	-ca-	.	.	1d	-lis
!LO:TX:t=P:problem:kreska pseudotaktowa	!	!LO:TX:t=P:problem:kreska pseudotaktowa	!	!	!	!	!
1GG	pec-	1B	-ta	.	.	1d	pec-
=51-	=51-	=51-	=51-	=51-	=51-	=51-	=51-
1.C	-ca-	2c\	.	.	.	2e\	-ca-
.	.	2B\	.	.	.	2d\	-ta
.	.	2A/	.	.	.	2c/	.
2C/	-ta	2G/	.	.	.	2B/	.
!	!	!LO:TX:t=P:problem:kreska pseudotaktowa	!	!	!	!LO:TX:t=P:problem:kreska pseudotaktowa	!
!	!	!LO:TX:a:t=P:problem:# above	!	!LO:N:vis=0	!	!	!
1D	mun-	1F#X	Mun-	00r	.	1A	mun-
=52-	=52-	=52-	=52-	=52-	=52-	=52-	=52-
1GG	-di	1G	-di	.	.	1G	-di
1r	.	1.G	mi-	.	.	1.g	mi-
!LO:TX:t=P:problem:kreska pseudotaktowa	!	!	!	!	!	!	!
1r	.	.	.	.	.	.	.
!	!	!LO:TX:t=P:problem:kreska pseudotaktowa	!	!	!	!	!
.	.	2G/	-&#383;e-	.	.	2g\	-&#383;e-
=53-	=53-	=53-	=53-	=53-	=53-	=53-	=53-
!LO:N:vis=00	!	!	!	!	!	!	!
000r	.	(<2A/	-re-	1r	.	0f	-re-
.	.	2G/)	.	.	.	.	.
.	.	(<2A/	-re	1.B	Mi-	.	.
.	.	2B\)	.	.	.	.	.
!	!	!	!	!	!	!LO:TX:t=P:problem:kreska pseudotaktowa	!
.	.	2c\	.	.	.	1e	-re
!	!	!LO:TX:t=P:problem:kreska pseudotaktowa	!	!LO:TX:t=P:problem:kreska pseudotaktowa	!	!	!
.	.	2d\	.	2B\	-&#383;e-	.	.
=54-	=54-	=54-	=54-	=54-	=54-	=54-	=54-
*	*	*	*	*	*	*	*ij
.	.	1.B	Mi-	2c\	-re-	1.g	mi-
.	.	.	.	2B\	.	.	.
.	.	.	.	2c\	.	.	.
.	.	2B\	-&#383;e-	2d\	.	2g\	-&#383;e-
.	.	2A/	-re-	2e\	.	1a	-re-
.	.	2B\	-re	2f\	.	.	.
=55-	=55-	=55-	=55-	=55-	=55-	=55-	=55-
.	.	0c	no-	0d	-re	1%3ryy	.
!LO:N:vis=0	!	!LO:TX:t=P:problem:kreska pseudotaktowa	!	!LO:TX:t=P:problem:kreska pseudotaktowa	!	!	!
00r	.	1B	.	1c	.	.	.
=56-	=56-	=56-	=56-	=56-	=56-	=56-	=56-
.	.	0c	-bis	1e	no-	1g	-re
*	*	*	*	*	*	*	*Xij
!	!	!	!	!LO:TX:t=P:problem:kreska pseudotaktowa	!	!	!
!	!	!	!	!	!	!LO:TX:a:t=P:problem:# above	!
.	.	.	.	0d	.	0f#X	no-
!	!	!LO:TX:t=P:problem:kreska pseudotaktowa	!	!	!	!	!
.	.	1c	qui	.	.	.	.
!	!	!	!	!	!	!LO:LB:g=original	!
=57-	=57-	=57-	=57-	=57-	=57-	=57-	=57-
1r	.	1.c	tol-	0c	-bis	0e	-bi&#383;
1r	.	.	.	.	.	.	.
.	.	2d	-lis	.	.	.	.
!	!	!	!	!LO:SIC:v:t=custos e	!	!LO:TX:t=P:problem:kreska pseudotaktowa	!
!LO:TX:t=P:problem:kreska pseudotaktowa	!	!	!	!LO:TX:t=P:problem:kreska pseudotaktowa	!	!	!
1C	qui	0yy	.	1e	Qui	1g	qui
!	!	!	!	!LO:LB:g=original	!	!	!
=58-	=58-	=58-	=58-	=58-	=58-	=58-	=58-
2C/	tol-	.	.	2e\	tol-	2g\	tol-
2D/	.	.	.	2f\	.	2fny\	.
2E\	.	2yy	.	2g\	.	1.e	.
2D\	.	2yy	.	2f\	.	.	.
!LO:TX:t=P:problem:kreska pseudotaktowa	!	!	!	!	!	!	!
1C	.	0e	.	2e\	.	.	.
!	!	!	!	!LO:TX:t=P:problem:kreska pseudotaktowa	!	!LO:TX:t=P:problem:kreska pseudotaktowa	!
.	.	.	.	2d\	.	2f\	.
=59-	=59-	=59-	=59-	=59-	=59-	=59-	=59-
1C	-li&#383;	.	.	1c	-lis	1g	.
1C	pec-	2e\	pec-	2c\	pec-	2g\	-lis
!	!	!LO:SIC:v:t=custos c	!	!	!	!	!
.	.	2d\	.	2c\	-ca-	2g\	pec-
!LO:TX:t=P:problem:kreska pseudotaktowa	!	!LO:LB:g=original	!	!LO:TX:t=P:problem:kreska pseudotaktowa	!	!LO:TX:t=P:problem:kreska pseudotaktowa	!
!	!	!LO:TX:t=P:problem:kreska pseudotaktowa	!	!	!	!	!
1F	-ca-	1c	-ca-	1c	-ta	1a	-ca-
=60-	=60-	=60-	=60-	=60-	=60-	=60-	=60-
1E	-ta	0c	-ta	1c	Mun-	1g	-ta
0G	mun-	.	.	0d	.	0g	mun-
.	.	1B	mun-	.	.	.	.
=61-	=61-	=61-	=61-	=61-	=61-	=61-	=61-
!LO:TX:t=P:problem:kreska pseudotaktowa	!	!LO:TX:t=P:problem:kreska pseudotaktowa	!	!LO:TX:t=P:problem:kreska pseudotaktowa	!	!LO:TX:t=P:problem:kreska pseudotaktowa	!
0.C	-di	0.c	-di	0.e	-di	0.g	-di
=62-	=62-	=62-	=62-	=62-	=62-	=62-	=62-
!	!	!	!	!LO:N:vis=00	!	!	!
1.C	mi-	1.E	Su&#383;-	00.r	.	1.G	Su&#383;-
2BB/	-&#383;e-	4Fny/	-ci-	.	.	4A/	-ci-
.	.	4G/	.	.	.	4B/	-pe
2AA/	-re-	2A/	-pe	.	.	2c/	de-
!	!	!LO:TX:t=P:problem:kreska pseudotaktowa	!	!	!	!LO:TX:t=P:problem:kreska pseudotaktowa	!
2AA/	-re	2B\	de-	.	.	2d/	-pre-
!LO:LB:g=original	!	!	!	!	!	!	!
=63-	=63-	=63-	=63-	=63-	=63-	=63-	=63-
2E\	mi-	2c\	-pre-	.	.	2e\	-ca-
2E\	-&#383;e-	2A/	-ca-	.	.	2g\	-ti-
2F\	-re-	2A/	-ti-	.	.	2f\	-o-
2F\	-re	2d\	-o-	.	.	2e\	-n(em)
!LO:TX:t=P:problem:kreska pseudotaktowa	!	!LO:TX:t=P:problem:kreska pseudotaktowa	!	!	!	!LO:TX:t=P:problem:kreska pseudotaktowa	!
1G	no-	1B	-n(em)	.	.	1d	no-
=64-	=64-	=64-	=64-	=64-	=64-	=64-	=64-
!	!	!	!	!LO:N:vis=00	!	!	!
0.C	-bis	0c	no-	00.r	.	0c	-str(am)
!	!	!LO:TX:t=P:problem:kreska pseudotaktowa	!	!	!	!	!
.	.	1c	-str(am)	.	.	1e	q(u)i
=65-	=65-	=65-	=65-	=65-	=65-	=65-	=65-
(<0C	qui	1e	q(ui)	.	.	1g	Se-
.	.	2e\	&#383;e-	.	.	2g\	-de&#383;
!	!	!	!	!	!	!LO:SIC:v:t=custos e	!
.	.	2d\	-de&#383;	.	.	2f\	ad
!	!	!	!	!	!	!LO:LB:g=original	!
1E)	.	2.c\	ad	.	.	2e\	dex-
!	!	!	!	!	!	!LO:TX:t=P:problem:kreska pseudotaktowa	!
.	.	.	.	.	.	2e\	-te-
!	!	!LO:TX:t=P:problem:kreska pseudotaktowa	!	!	!	!	!
.	.	4c\	dex-	.	.	.	.
=66-	=66-	=66-	=66-	=66-	=66-	=66-	=66-
!	!	!	!	!LO:N:vis=00	!	!	!
1G	&#383;e-	0B	-te-	00.r	.	0d	-r(am)
2G\	-des	.	.	.	.	.	.
2F\	ad	.	.	.	.	.	.
!	!	!	!	!	!	!LO:TX:t=P:problem:kreska pseudotaktowa	!
2E\	dex-	1B	-r(am)	.	.	1d	a[d]
!LO:TX:t=P:problem:kreska pseudotaktowa	!	!	!	!	!	!	!
2D\	-te-	.	.	.	.	.	.
=67-	=67-	=67-	=67-	=67-	=67-	=67-	=67-
2C/	-r(am)	1c	ad	.	.	1e	dex-
2D/	.	.	.	.	.	.	.
2E\	Pa-	2B\	dex-	.	.	2g\	-te-
4BB/	.	2B\	-te	.	.	2g\	-r(am)
4C/	.	.	.	.	.	.	.
!	!	!LO:SIC:v:t=custos G	!	!	!	!	!
!LO:TX:t=P:problem:kreska pseudotaktowa	!	!LO:TX:t=P:problem:kreska pseudotaktowa	!	!	!	!	!
1D	.	1A	Pa-	.	.	2g\	Pa-
!	!	!	!	!	!	!LO:TX:t=P:problem:kreska pseudotaktowa	!
!	!	!	!	!	!	!LO:TX:a:t=P:problem:# above	!
.	.	.	.	.	.	2f#X\	.
!	!	!LO:LB:g=original	!	!	!	!	!
=68-	=68-	=68-	=68-	=68-	=68-	=68-	=68-
1GG	-tris	1G	-tris	1r	.	1g	-tris
1.E	mi-	1.G	Mi-	1.B	Mi-	1.e	mi-
!	!	!LO:TX:t=P:problem:kreska pseudotaktowa	!	!LO:TX:t=P:problem:kreska pseudotaktowa	!	!LO:TX:t=P:problem:kreska pseudotaktowa	!
2E\	-&#383;e-	2G/	-&#383;e-	2B\	-&#383;e-	2e\	-&#383;e-
=69-	=69-	=69-	=69-	=69-	=69-	=69-	=69-
2A\	-re-	0A	-re-	1.c	-re-	2e\	-re-
2G\	.	.	.	.	.	4fny\	.
.	.	.	.	.	.	4g\	.
2F\	.	.	.	.	.	2a\	.
4E\	.	.	.	2d\	.	4g\	.
4D\	.	.	.	.	.	4f\	.
!LO:TX:t=P:problem:kreska pseudotaktowa	!	!	!	!	!	!LO:TX:t=P:problem:kreska pseudotaktowa	!
1C	-re	1c	-re	1e	-re	1e	-re
=70-	=70-	=70-	=70-	=70-	=70-	=70-	=70-
*	*	*	*	*	*	*	*ij
1.D	mi-	1.B	Mi-	1.f	Mi-	2f\	mi-
.	.	.	.	.	.	2e\	-&#383;e-
.	.	.	.	.	.	2f\	-re-
!LO:N:vis=2.	!	!	!	!	!	!	!
2E\	-&#383;e-	2B\	-&#383;e-	4e\	.	2g\	.
.	.	.	.	4d\	.	.	.
!	!	!LO:TX:t=P:problem:kreska pseudotaktowa	!	!	!	!LO:TX:t=P:problem:kreska pseudotaktowa	!
1F	-re-	1A	-re-	2c\	-&#383;e-	1a	-re
*	*	*	*	*	*	*	*Xij
!	!	!	!	!LO:TX:t=P:problem:kreska pseudotaktowa	!	!	!
.	.	.	.	2d\	re-	.	.
=71-	=71-	=71-	=71-	=71-	=71-	=71-	=71-
*	*	*	*	*lig	*	*	*
1E	-re	1G	-re	1e	-re	1g	no-
*	*	*lig	*	*	*	*	*
!	!	!	!	!	!	!LO:TX:t=P:problem:kreska pseudotaktowa	!
!	!	!	!	!	!	!LO:TX:a:t=P:problem:# above	!
0D	no-	1A	no-	1c	.	0f#	.
*	*	*	*	*Xlig	*	*	*
!	!	!LO:TX:t=P:problem:kreska pseudotaktowa	!	!	!	!	!
.	.	1F	.	2B\	no-	.	.
!	!	!	!	!LO:TX:t=P:problem:kreska pseudotaktowa	!	!	!
.	.	.	.	2d\	.	.	.
*	*	*Xlig	*	*	*	*	*
=72-	=72-	=72-	=72-	=72-	=72-	=72-	=72-
1C	-bis	1G,<	-bis	1c	-bis	1e,	-bis
!	!	!	!	!LO:TX:a:t=4	!	!	!
!	!	!	!	!LO:N:vis=00	!	!	!
2C/	quo-	2.c\	quo-	000r	.	2.e\	q(u)o-
2C/	-ni-	.	.	.	.	.	.
.	.	4c\	-ni-	.	.	4e\	-ni-
2C/	-(am)	2c\	-(am)	.	.	2e\	-(am)
!LO:TX:t=P:problem:kreska pseudotaktowa	!	!LO:TX:t=P:problem:kreska pseudotaktowa	!	!	!	!	!
2C/	tu	2d\	tu	.	.	2fny\	tu
!	!	!	!	!	!	!LO:LB:g=original	!
=73-	=73-	=73-	=73-	=73-	=73-	=73-	=73-
1C	&#383;o-	1.e	&#383;o-	.	.	1.g	So-
1C	-l(us)	.	.	.	.	.	.
.	.	2d\	-l(us)	.	.	2f\	-l(us)
!	!	!LO:TX:t=P:problem:kreska pseudotaktowa	!	!	!	!LO:TX:t=P:problem:kreska pseudotaktowa	!
1C	S(an)-	1c	S(an)-	.	.	1e	S(an)-
=74-	=74-	=74-	=74-	=74-	=74-	=74-	=74-
2C/	-ct(us)	2c\	-ctus	.	.	2e\	-ct(us)
2C/	tu	2d\	tu	.	.	2f\	tu
2C/	&#383;o-	2e\	&#383;o-	.	.	2g\	So-
2C/	-l(us)	2d\	-l(us)	.	.	2g\	-l(us)
2.D/	Do-	2.c\	D(o-	.	.	2.f\	Do-
.	.	.	.	.	.	.	.
!LO:TX:t=P:problem:kreska pseudotaktowa	!	!LO:TX:t=P:problem:kreska pseudotaktowa	!	!	!	!LO:TX:t=P:problem:kreska pseudotaktowa	!
4D/	-mi-	4B\	-mi)-	.	.	4f\	-mi-
=75-	=75-	=75-	=75-	=75-	=75-	=75-	=75-
!	!	!	!	!LO:TX:t=P:problem:kreska pseudotaktowa	!	!	!
!	!	!	!	!LO:N:vis=00	!	!	!
2E\	-n(us)	2c\	-n(us)	00.r	.	2e\	-n(us)
2E\	tu	2e\	tu	.	.	2g\	.
2F\	&#383;o-	2d\	&#383;o-	.	.	2f\	So-
2F\	-l(us)	2c\	-l(us)	.	.	2e\	-l(us)
!LO:TX:t=P:problem:kreska pseudotaktowa	!	!	!	!	!	!	!
1G	al-	4B\	al-	.	.	4d\	al-
.	.	4c\	.	.	.	4e\	.
.	.	4d\	.	.	.	4f\	.
!	!	!LO:TX:t=P:problem:kreska pseudotaktowa	!	!	!	!LO:TX:t=P:problem:kreska pseudotaktowa	!
.	.	4e\	.	.	.	4g\	.
!	!	!LO:LB:g=original	!	!	!	!	!
=76-	=76-	=76-	=76-	=76-	=76-	=76-	=76-
1.C	-ti&#383;-	1.c	ti&#383;-	.	.	1.e	ti-
2C/	-&#383;i-	2c\	-&#383;i-	.	.	2e\	-&#383;i-
!	!	!LO:TX:t=P:problem:kreska pseudotaktowa	!	!	!	!	!
1C	-m(us)	1c	-m(us)	.	.	1e	-m(us)
!	!	!	!	!LO:LB:g=original	!	!	!
=77-	=77-	=77-	=77-	=77-	=77-	=77-	=77-
*	*	*	*	*	*	*col	*
2c\	Je-	2G/	Je-	2e\	Je-	1e	Je-
2B\	.	4A/	.	2d\	.	.	.
.	.	4B/	.	.	.	.	.
*	*	*	*	*	*	*Xcol	*
!	!	!	!	!	!	!LO:TX:t=P:problem:kreska pseudotaktowa	!
2A\	.	1.c	.	2c\	.	0g	-&#383;u
2G\	.	.	.	2B\	.	.	.
1F	.	.	.	2A/	.	.	.
!	!	!LO:TX:t=P:problem:kreska pseudotaktowa	!	!LO:TX:t=P:problem:kreska pseudotaktowa	!	!	!
.	.	2d\	.	2B\	-&#383;u	.	.
!LO:LB:g=original	!	!	!	!	!	!	!
=78-	=78-	=78-	=78-	=78-	=78-	=78-	=78-
1E	-&#383;u	2e\	.	0c	Chry-	1e	X-
.	.	2e\	-&#383;u	.	.	.	.
!	!	!LO:TX:t=P:problem:kreska pseudotaktowa	!	!	!	!	!
0G	X-	0d	Chry-	.	.	0e	-e
.	.	.	.	1B	.	.	.
=79-	=79-	=79-	=79-	=79-	=79-	=79-	=79-
!LO:TX:t=P:problem:kreska pseudotaktowa	!	!LO:TX:t=P:problem:kreska pseudotaktowa	!	!LO:TX:t=P:problem:kreska pseudotaktowa	!	!LO:TX:t=P:problem:kreska pseudotaktowa	!
0.C	-e	0.c	-ste	0.c	-&#383;te	0.e	.
=80-	=80-	=80-	=80-	=80-	=80-	=80-	=80-
!	!	!	!	!	!	!LO:N:vis=0	!
1C	C(um)	1e	C(um)	1c	C(um)	0.r	.
1C	S(an)-	2c\	San-	(<2A/	San-	.	.
.	.	2d\	.	2B/)	.	.	.
1C	-cto	2e\	.	(>2c\	-cto	.	.
!	!	!LO:TX:t=P:problem:kreska pseudotaktowa	!	!	!	!	!
.	.	2f\	-cto	2d\)	.	.	.
=81-	=81-	=81-	=81-	=81-	=81-	=81-	=81-
1.GG	Sp(i-	1.d	Spi-	1.B	Spi-	1r	.
.	.	.	.	.	.	1r	.
2GG/	-ri)-	2d\	-ri-	2B\	-ri-	.	.
!	!	!	!	!	!	!LO:TX:t=P:problem:kreska pseudotaktowa	!
2GG/	-tu	2e\	-tu	2B\	-tu	1g	in
!	!	!LO:TX:t=P:problem:kreska pseudotaktowa	!	!LO:TX:t=P:problem:kreska pseudotaktowa	!	!	!
2G\	in	2d\	in	2B\	in	.	.
=82-	=82-	=82-	=82-	=82-	=82-	=82-	=82-
1C	glo-	1e	glo-	1c	glo-	1g	gl(o-
2C/	-ri-	2e\	-ri-	2c\	-ri-	2g\	-ri)-
2BB/	-a	2d\	a	2d\	-a	2g\	-a
!LO:TX:t=P:problem:kreska pseudotaktowa	!	!LO:TX:t=P:problem:kreska pseudotaktowa	!	!LO:TX:t=P:problem:kreska pseudotaktowa	!	!	!
1D	de-	1d	De-	1d	De-	1f	De-
!	!	!	!	!	!	!LO:LB:g=original	!
=83-	=83-	=83-	=83-	=83-	=83-	=83-	=83-
0GG	-i	0d	-i	0d	-i	0g	-i
*	*	*	*	*	*	*	*ij
!LO:TX:t=P:problem:kreska pseudotaktowa	!	!LO:TX:t=P:problem:kreska pseudotaktowa	!	!LO:TX:t=P:problem:kreska pseudotaktowa	!	!LO:TX:t=P:problem:kreska pseudotaktowa	!
1G	in	1G	in	1B	in	1g	in
=84-	=84-	=84-	=84-	=84-	=84-	=84-	=84-
1.F	glo-	1A	glo-	1c	glo-	1f	gl(o-
.	.	2A\	-ri-	2c\	-ri-	2f\	-ri)-
2F\	[-ri-	2B\	-a	2d\	-a	2f\	-a
!	!	!LO:LB:g=original	!	!	!	!	!
1E	-a]	2c\	De-	2e\	De-	2e\	De-
!	!	!LO:TX:t=P:problem:kreska pseudotaktowa	!	!LO:TX:t=P:problem:kreska pseudotaktowa	!	!	!
.	.	2d\	-i	2f\	-i	2e\	-i
*	*	*	*	*	*	*	*Xij
!	!	!	!	!LO:PB:g=original	!	!	!
=85-	=85-	=85-	=85-	=85-	=85-	=85-	=85-
1.G	De-	2B\	Pa-	2d\	Pa-	0g	Pa-
.	.	2A\	.	2c\	.	.	.
.	.	2B\	.	2d\	.	.	.
2G\	-i	2c\	.	2e\	.	.	.
!LO:TX:t=P:problem:kreska pseudotaktowa	!	!LO:TX:t=P:problem:kreska pseudotaktowa	!	!	!	!LO:TX:t=P:problem:kreska pseudotaktowa	!
1F	Pa-	1d	.	2f\	.	1f	.
!	!	!	!	!LO:TX:t=P:problem:kreska pseudotaktowa	!	!	!
.	.	.	.	2d\	.	.	.
=86-	=86-	=86-	=86-	=86-	=86-	=86-	=86-
*	*	*	*	*	*	*col	*
1E	.	1c	-tris	2g\	-tris	1e	-tri&#383;
.	.	.	.	2e\	.	.	.
*	*	*lig	*	*	*	*Xcol	*
!	!	!	!	!LO:TX:t=P:problem:kreska pseudotaktowa	!	!	!
!	!	!	!	!LO:TX:a:t=P:problem:# above	!	!	!
0D	-tris	1c	a-	0f#X	a-	0d	a-
*	*	*	*	*	*	*	*
!	!	!LO:TX:t=P:problem:kreska pseudotaktowa	!	!	!	!	!
.	.	1B	.	.	.	.	.
*	*	*Xlig	*	*	*	*	*
=87-	=87-	=87-	=87-	=87-	=87-	=87-	=87-
0C	a-	0c	-men	0e	-men	0c	-men
!LO:TX:t=P:problem:kreska pseudotaktowa	!	!	!	!LO:TX:t=P:problem:kreska pseudotaktowa	!	!LO:TX:t=P:problem:kreska pseudotaktowa	!
1c	-men	1c	in	1e	in	1g	.
=88-	=88-	=88-	=88-	=88-	=88-	=88-	=88-
1.A	in	1e	glo-	1c	glo-	1a	in
.	.	2e\	-ri-	2c\	-ri-	2c/	glo-
2B\	glo-	2d\	-a	2B\	-a	2d/	-ri-
2c\	.	2c\	De-	2A/	De-	2e\	-a
!	!	!LO:TX:t=P:problem:kreska pseudotaktowa	!	!LO:TX:t=P:problem:kreska pseudotaktowa	!	!LO:TX:t=P:problem:kreska pseudotaktowa	!
4B\	.	2c\	-i	2A/	-i	2f\	.
4A\	.	.	.	.	.	.	.
!LO:LB:g=original	!	!	!	!	!	!	!
=89-	=89-	=89-	=89-	=89-	=89-	=89-	=89-
0G	-ria	0B	Pa-	2B\	Pa-	0g	De-
.	.	.	.	2c\	.	.	.
.	.	.	.	1.d	.	.	.
!LO:TX:t=P:problem:kreska pseudotaktowa	!	!	!	!	!	!LO:TX:t=P:problem:kreska pseudotaktowa	!
1D	De-	1A	.	.	.	1a	-i
!	!	!	!	!LO:TX:t=P:problem:kreska pseudotaktowa	!	!	!
.	.	.	.	2A/	-tris	.	.
=90-	=90-	=90-	=90-	=90-	=90-	=90-	=90-
*lig	*	*	*	*	*	*	*
*	*	*col	*	*	*	*lig	*
1E	-i	1c	-tris	0c	a-	1g	Pa-
*	*	*Xcol	*	*	*	*	*
1F	.	0d	.	.	.	1a	.
!	!	!	!	!LO:TX:t=P:problem:kreska pseudotaktowa	!	!LO:TX:t=P:problem:kreska pseudotaktowa	!
*Xlig	*	*	*	*	*	*Xlig	*
1G	-Pa-	.	.	1B	.	1g	-tris
=91-	=91-	=91-	=91-	=91-	=91-	=91-	=91-
!	!	!LO:TX:t=P:problem:kreska pseudotaktowa	!	!	!	!	!
1C	-tris	0.c	a-	1c	-me(n)	2f\	Pa-
.	.	.	.	.	.	2e\	.
2c\	a-	.	.	2e\	De-	2f\	.
2B\	.	.	.	2d\	-i	2g\	.
!	!	!	!	!	!	!LO:TX:t=P:problem:kreska pseudotaktowa	!
2A\	.	.	.	2c\	Pa-	1a	-tris
4G\	.	.	.	4B/	.	.	.
!LO:TX:t=P:problem:kreska pseudotaktowa	!	!	!	!LO:TX:t=P:problem:kreska pseudotaktowa	!	!	!
4F\	.	.	.	4A/	.	.	.
=92-	=92-	=92-	=92-	=92-	=92-	=92-	=92-
2E\	.	0c	-men	2G/	.	1.e	a-
2D/	.	.	.	4A\	.	.	.
.	.	.	.	4B\	.	.	.
2C/	.	.	.	1c	.	.	.
4D\	.	.	.	.	.	4f\	.
4E\	.	.	.	.	.	4g\	.
!LO:TX:t=P:problem:kreska pseudotaktowa	!	!	!	!LO:SIC:v:t=custos e	!	!	!
*	*	*	*ij	*	*	*	*
1F	-men	1c	a-	1c	-tris	1a	.
!	!	!	!	!LO:LB:g=original	!	!	!
=93-	=93-	=93-	=93-	=93-	=93-	=93-	=93-
1C	.	0.B	men	1e	a-	0g	-men
*	*	*	*Xij	*	*	*	*
1G	a-	.	.	0d	.	.	.
!	!	!	!	!	!	!LO:TX:t=P:problem:kreska pseudotaktowa	!
1GG	.	.	.	.	.	1g	a-
!	!	!	!	!	!	!LO:LB:g=original	!
=94-	=94-	=94-	=94-	=94-	=94-	=94-	=94-
!	!	!	!	!	!	!LO:TX:t=P:problem:dwie fermaty	!
[0.Cl\;>	-men	[0.cl;>	amen	[0.cl;>	-men	[0.el;>;<	-men.
=95-	=95-	=95-	=95-	=95-	=95-	=95-	=95-
0.C]	.	0.c]	.	0.c]	.	0.e]	.
==	==	==	==	==	==	==	==
*-	*-	*-	*-	*-	*-	*-	*-
!!!system-decoration: [(s1,s2,s3,s4)]
!!!RDF**kern: l = terminal long
!!!RDF**kern: > = above
!!!RDF**kern: < = below
!!!EED: Antoni Szymański
!!!EST: 2021-07-30
!!!ENC:Berenika Jozajtis
!!!END:2021-07-06
